assets/icons/birthday_colored.svg

<svg fill="none" height="24" viewBox="0 0 24 24" width="24" xmlns="http://www.w3.org/2000/svg"><path d="m14.8414 14.3998c-.1352.0425-.1981.1465-.1847.2878.0071.0746.0374.147.0605.2194.0949.2974.1704.5974.1413.9153-.0256.2844-.1765.4488-.4477.49-.2155.033-.4238 0-.632-.0523-.6128-.1542-1.1466-.4812-1.6743-.8188-1.152-.737-2.12401-1.6834-2.99958-2.7401-.57788-.6975-1.09468-1.4393-1.47323-2.2727-.18062-.3968-.33211-.80604-.33228-1.25371 0-.36693.17496-.57054.52491-.6257.07928-.01252.15891-.00182.23871.0078.06655.00899.13394-.00832.18855-.04844s.09235-.10006.10561-.16768c.02842-.15679-.04627-.28454-.19423-.32791-.04095-.0123-.08282-.0211-.12518-.02631-.71278-.08221-1.27777.42934-1.28342 1.16555-.00389.53169.16508 1.0184.37714 1.4924.40379.902.9642 1.6983 1.58534 2.4518 1.07385 1.3023 2.30266 2.4149 3.77126 3.2315.2745.1526.5607.2771.8802.3982-.6405.25-1.2493.4879-1.8575.7269-.0668.0263-.1237.0047-.1835-.0212-2.40759-1.044-3.95356-2.8618-4.63792-5.4534-.05844-.2216-.09728-.4474-.13507-.6737-.02754-.1647-.16702-.2721-.30456-.2527-.14903.0209-.24542.1461-.23625.3159.00604.0708.01665.1411.03179.2105.45906 2.4227 1.70116 4.304 3.70779 5.6548.29182.1966.60192.3615.94112.5341-.1401.0544-.2506.0987-.3613.1417-.90187.3508-1.80387.701-2.70598 1.0503-.04696.0182-.08951.0659-.15625.0082-.65416-.565-1.11675-1.2579-1.32192-2.1155-.16756-.7003-.15184-1.4238-.22529-2.136-.02242-.2178-.11706-.3341-.29874-.324-.17021.0094-.2622.1283-.24719.347.02755.4208.07062.8406.09535 1.2614.0595 1.0042.36071 1.9128.98238 2.7007.14584.1844.31111.3488.48219.5284l-2.26952.8816c.13684-.5832.26697-1.1334.39497-1.6844.04485-.1927-.02542-.3344-.18098-.3752-.17002-.0445-.29521.0395-.3457.2441-.09658.3914-.18257.7848-.28338 1.1748-.08528.3286-.13066.6681-.25284.9868v.1974c.05333.076.11819.1428.1921.1976h.16014c.01024-.0332.04114-.0288.06462-.0379 2.39782-.9322 4.79594-1.8642 7.19434-2.7962 1.0454-.406 2.0924-.8076 3.1377-1.2138.2896-.1126.4943-.3194.5893-.625.1782-.5779.0292-1.1229-.1843-1.6548-.0526-.1308-.1796-.1664-.3125-.1245z" fill="#5c5b5b"/><g fill="#969696"><path d="m20.2713 20.3908c.054-.1468.0872-.3008.0983-.4573v-.3684c-.054-.5756-.3081-1.0383-.7544-1.3862-.1018-.0777-.1899-.1727-.2605-.2809-.2605-.4018-.5867-.7543-.9641-1.042-.5108-.3917-1.0818-.6403-1.7044-.7694-.1952-.0403-.3504.0508-.3833.2214-.0309.1595.0812.2914.2755.3331.1295.028.2589.0589.3856.0984.639.2007 1.1811.557 1.6386 1.0808-.2759.0666-.5186.1726-.726.3501-.3685.3152-.5798.7028-.4721 1.2087.1094.5138.5221.8671.9989.8818.5439.0169.9675-.2919 1.1239-.8275.0394-.1347.0584-.2757.0882-.4214.256.3811.2859.8981.0832 1.3342-.118.254-.1059.3197.0883.5059h.1921c.1752-.1024.2283-.2858.2922-.4613zm-1.2183-1.4867c0 .4147-.1366.6672-.4027.7665-.103.0383-.2148.0436-.3208.0153-.1059-.0284-.201-.0892-.2727-.1743-.1444-.1706-.1749-.4279-.0665-.6257.1496-.2722.3842-.4315.6766-.4985.1589-.0363.2597.0278.3298.1855.0447.1042.0639.2181.056.3317z"/><path d="m5.33622 4.28195c-.04838.12031-.1273.22937-.16403.35241-.06762.2261-.2131.30994-.43098.32046-.1635.00799-.32541.0461-.48872.06479-.12572.01415-.18752.10688-.25249.19961v.16458c.16738.23592.39196.41321.58724.62062.05297.05553.07575.10217.05968.18455-.04396.22484-.06851.45367-.11158.67832-.02561.13447.00582.24081.1107.31738.1017.07404.21187.05717.31781 0 .1589-.08637.32417-.16332.47672-.26312.14125-.09218.25936-.10253.40414-.00145.14479.10107.30987.16622.46295.25405.11653.06623.22953.0862.34376.00308.11424-.08311.12024-.19961.10029-.32446-.03443-.2154-.06921-.43116-.11318-.64456-.01765-.08638.00124-.14264.06251-.20161.16491-.16296.32699-.33081.49119-.49413.08528-.08547.10594-.19.07239-.3016-.03531-.11432-.11989-.17384-.23624-.19018-.22635-.03157-.452-.06895-.67852-.09799-.07063-.00907-.11388-.03447-.14478-.10416-.0791-.1782-.17286-.34986-.24967-.52916-.05526-.1292-.13312-.22882-.25812-.28816h-.09605c-.13013.05154-.2117.14844-.26502.28073zm.29221.61988c.30404.5856.15696.48996.80653.6041-.35312.2272-.48272.51973-.30951.92548-.32435-.24933-.62944-.28399-.95344-.00109.12943-.39614.04432-.69864-.30015-.93219.42728.02813.66352-.1782.75657-.5963z"/><path d="m10.2173 5.08402c.2714-.11269.4115-.43551.3107-.71642-.0672-.1871-.2147-.28672-.3796-.36711h-.25616c-.04221.02069-.08511.04011-.12677.06188-.12162.06794-.21369.18071-.25764.31561-.04396.13491-.03656.28191.02072.41143.05728.12951.16017.23191.28797.28658.12779.05467.27098.05753.40078.00803z"/><path d="m17.8952 4.70772c.1153-.19308.0279-.58723-.1567-.70772h-.1602c-.1847.12975-.2658.48996-.1562.69574.0233.0428.0571.07861.098.10393.0409.02531.0875.03925.1352.04046.0478.00121.095-.01036.137-.03358.0421-.02321.0775-.05727.1029-.09883z"/><path d="m19.7179 9.36851c-.0431.02251-.0794.05678-.1048.09907-.0254.04228-.039.09095-.0392.14065-.0033.10979.0485.19961.1463.25405.1985.11124.5537.02323.6765-.16749v-.16459c-.1293-.18872-.4791-.27147-.6788-.16169z"/><path d="m18.7173 9.47442c-.0809-.143-.2265-.17203-.4173-.07894-1.6568.81092-3.3136 1.62162-4.9701 2.43222-.2296.1125-.4611.2219-.69.336-.1394.0695-.1918.1902-.1517.3408.0353.1306.1298.1945.2624.1949.0722.0011.1328-.0323.1954-.063 1.3308-.6513 2.6617-1.302 3.9926-1.952.5411-.2646 1.0825-.528 1.6222-.79534.1886-.09381.2458-.25713.1565-.41464z"/><path d="m9.44736 12.1228c.16067.0626.30015-.0161.38314-.219.07062-.1703.13578-.3428.2089-.5117.5007-1.1551.8026-2.35548.7901-3.58 0-.10888 0-.16877 0-.2292-.0043-.56357-.07-1.12488-.1956-1.67348-.0354-.15479-.1528-.24189-.2859-.22955-.1289.01197-.2456.12394-.2514.25605-.0032.06968.013.14136.027.21068.2545 1.26022.2109 2.5095-.13084 3.74782-.17003.62078-.43469 1.20298-.67094 1.79648-.07857.1965-.02578.3722.12554.4319z"/><path d="m14.6045 13.2534c-.831-.0071-1.6421.1557-2.4557.2994-.1327.0234-.2102.1227-.2127.2693-.0025.1387.0673.2294.1892.2722.0707.025.1463.0067.2208-.0058.5355-.0907 1.0683-.2029 1.6104-.2439 1.198-.0923 2.4014.077 3.5312.4967.0654.0241.1298.0556.1998.0443.1344-.022.2269-.0982.2418-.2432.0163-.1574-.058-.253-.2033-.3085-1.0062-.3898-2.0495-.5672-3.1215-.5805z"/><path d="m14.4213 9.05552c.4318.00459.8636.00459 1.2955 0 .2037-.00236.3001-.10671.304-.31757.0044-.21903.0011-.43824.0011-.65746 0-.2301.004-.46037-.0013-.69048-.0046-.20505-.0996-.30105-.2975-.30232-.4372-.00266-.8743-.00266-1.3115 0-.2066.00127-.3023.09654-.3044.31194-.0046.44363-.0049.88743-.0009 1.33142.0021.21903.1017.32211.315.32447zm.2597-1.38061c.0814-.08256.2523-.01378.3835-.0274.1312.01416.3025-.0557.3832.02795.0807.08366.0226.25877.022.39342-.0005.13465.0584.31067-.0225.39396-.0811.0833-.252.02414-.383.02378s-.3014.0606-.3827-.02432c-.0812-.08493-.0227-.25932-.0227-.39433s-.0591-.3103.0222-.39306z"/><path d="m10.5823 12.2504c.0435.1109.1342.1634.2317.1747.1222 0 .1942-.0659.2649-.1319.6811-.6291 1.3621-1.2588 2.0431-1.8891.202-.1867.4061-.3706.6053-.56091.1316-.12703.1412-.28581.0353-.40739-.1104-.12703-.2525-.13356-.3957-.01561-.0332.02722-.065.05662-.0966.08601-.6678.6188-1.3363 1.2377-2.0057 1.8568-.2016.1867-.4034.3736-.6053.5607-.0971.0905-.1255.2031-.077.3267z"/><path d="m18.2124 14.9468c-.0012.4752.3532.8408.8172.8408.1078.0003.2147-.0214.3144-.0638s.1903-.1046.2666-.183c.0762-.0785.1366-.1717.1778-.2742.0411-.1025.0621-.2124.0618-.3233-.0035-.4547-.3738-.8347-.8161-.8385-.108-.0011-.215.0199-.3151.0618-.0999.042-.1909.1039-.2673.1823-.0765.0783-.1371.1716-.1781.2742-.0411.1026-.0619.2127-.0612.3237zm.8103-.2793c.1434-.0029.279.1334.2795.2807 0 .1508-.1272.2777-.2776.276-.1577-.0016-.2666-.1183-.2638-.2823.0009-.0717.0285-.1401.0773-.1913.0488-.0511.1149-.0809.1846-.0831z"/><path d="m12.4721 7.92733c.4618 0 .8167-.36765.8161-.844-.0001-.11029-.0214-.21948-.0625-.32134s-.1014-.19439-.1773-.27232c-.076-.07793-.1661-.13972-.2653-.18184-.0991-.04214-.2054-.06377-.3127-.06369-.2167.00017-.4245.08881-.5776.24643-.0758.07804-.1359.17067-.1769.27259-.041.10193-.0621.21115-.062.32144-.0015.11093.0187.22103.0593.32383.0406.10279.1008.1962.177.27473.0762.07852.167.14058.2669.18251.1.04194.207.0629.315.06166zm-.0053-1.12038c.1455-.00344.2756.12903.2761.28073-.0024.07306-.0325.14224-.0839.19276s-.12.07837-.1911.07759c-.0711-.00079-.1391-.03014-.1894-.08178-.0504-.05164-.0791-.12147-.0799-.19455.0041-.14336.1291-.27148.2682-.27475z"/><path d="m18.1552 5.39524c.0626.0118.1262.0166.1898.01433.2698.00146.4061-.09073.4123-.278.0067-.19072-.1324-.28726-.4136-.28491-.048 0-.0961-.00326-.1438 0-.1515.0118-.253.10889-.267.25261-.0132.13755.0763.26185.2223.29597z"/><path d="m18.4779 8.23812c-.0048.08735-.0043.17492.0013.26222.014.16332.1358.27727.2825.2722.1528-.0049.2543-.11687.2617-.29035.0018-.04373 0-.08746 0-.1312 0-.03829 0-.07658 0-.11469-.005-.18146-.1084-.30232-.2627-.30704-.1577-.00326-.2769.12376-.2828.30886z"/><path d="m17.9324 5.69824c-.0061-.17729-.102-.28399-.2583-.28889-.1633-.00508-.2777.10434-.2865.28055-.0051.09272-.0051.18565 0 .27837.0104.1664.1249.27565.2779.27329.1579-.00237.2587-.10889.2664-.28128.002-.04355 0-.08728 0-.13102 0-.04373.0021-.08746.0005-.13102z"/><path d="m18.4841 10.6939c-.0106.0585-.006.1198-.0062.1798 0 .2861.0952.4327.28.4298.1799-.0028.2673-.1399.2668-.4201 0-.0494.0021-.0985 0-.1477-.0085-.1559-.1163-.2722-.2573-.2806-.1323-.0067-.2581.0949-.2833.2388z"/><path d="m19.6927 9.04216c.0902-.07549.1723-.16066.2449-.25405.0669-.08639.0662-.19127.0176-.29163-.0501-.10325-.1368-.14517-.251-.15297-.1789.01942-.2648.17911-.3777.29452-.1031.10525-.0957.26385-.0039.36965.0968.11197.2527.13301.3701.03448z"/><path d="m16.7641 5.38956c.0679.02432.136.01815.2047.01815.0529 0 .1068.00617.1589-.00128.1643-.02304.2648-.1399.2586-.29578-.0061-.15588-.1108-.25678-.2844-.26386-.0955-.00519-.1912-.00423-.2866.00291-.1398.01216-.2235.09763-.2387.23954-.0157.14698.0461.24988.1875.30032z"/><path d="m19.6738 10.1761c-.0912-.0655-.1887-.0593-.2837-.0032-.092.0544-.131.1426-.1323.2453-.0017.1633.2965.4612.4577.463.0479.0032.0956-.0081.1375-.0323.0418-.0242.0757-.0604.0979-.1042.0529-.0977.0552-.202-.0075-.2933-.0737-.107-.165-.2002-.2696-.2753z"/><path d="m17.5919 8.43964c-.0931.10471-.1091.22919-.0213.34243.0772.09704.1637.18602.2579.26567.0789.06841.1753.07258.2684.02141.093-.05118.1515-.13356.1559-.27656-.0258-.18509-.184-.29742-.3314-.40757-.1134-.08456-.2366-.04954-.3295.05462z"/></g></svg>

<svg width="24" height="24" viewBox="0 0 24 24" fill="none" xmlns="http://www.w3.org/2000/svg">
<path d="M14.8414 14.3998C14.7062 14.4423 14.6433 14.5463 14.6567 14.6876C14.6638 14.7622 14.6941 14.8346 14.7172 14.907C14.8121 15.2044 14.8876 15.5044 14.8585 15.8223C14.8329 16.1067 14.682 16.2711 14.4108 16.3123C14.1953 16.3453 13.987 16.3123 13.7788 16.26C13.166 16.1058 12.6322 15.7788 12.1045 15.4412C10.9525 14.7042 9.98049 13.7578 9.10492 12.7011C8.52704 12.0036 8.01024 11.2618 7.63169 10.4284C7.45107 10.0316 7.29958 9.62236 7.29941 9.17469C7.29941 8.80776 7.47437 8.60415 7.82432 8.54899C7.9036 8.53647 7.98323 8.54717 8.06303 8.55679C8.12958 8.56578 8.19697 8.54847 8.25158 8.50835C8.30619 8.46823 8.34393 8.40829 8.35719 8.34067C8.38561 8.18388 8.31092 8.05613 8.16296 8.01276C8.12201 8.00046 8.08014 7.99166 8.03778 7.98645C7.325 7.90424 6.76001 8.41579 6.75436 9.152C6.75047 9.68369 6.91944 10.1704 7.1315 10.6444C7.53529 11.5464 8.0957 12.3427 8.71684 13.0962C9.79069 14.3985 11.0195 15.5111 12.4881 16.3277C12.7626 16.4803 13.0488 16.6048 13.3683 16.7259C12.7278 16.9759 12.119 17.2138 11.5108 17.4528C11.444 17.4791 11.3871 17.4575 11.3273 17.4316C8.91971 16.3876 7.37374 14.5698 6.68938 11.9782C6.63094 11.7566 6.5921 11.5308 6.55431 11.3045C6.52677 11.1398 6.38729 11.0324 6.24975 11.0518C6.10072 11.0727 6.00433 11.1979 6.0135 11.3677C6.01954 11.4385 6.03015 11.5088 6.04529 11.5782C6.50435 14.0009 7.74645 15.8822 9.75308 17.233C10.0449 17.4296 10.355 17.5945 10.6942 17.7671C10.5541 17.8215 10.4436 17.8658 10.3329 17.9088C9.43103 18.2596 8.52903 18.6098 7.62692 18.9591C7.57996 18.9773 7.53741 19.025 7.47067 18.9673C6.81651 18.4023 6.35392 17.7094 6.14875 16.8518C5.98119 16.1515 5.99691 15.428 5.92346 14.7158C5.90104 14.498 5.8064 14.3817 5.62472 14.3918C5.45451 14.4012 5.36252 14.5201 5.37753 14.7388C5.40508 15.1596 5.44815 15.5794 5.47288 16.0002C5.53238 17.0044 5.83359 17.913 6.45526 18.7009C6.6011 18.8853 6.76637 19.0497 6.93745 19.2293L4.66793 20.1109C4.80477 19.5277 4.9349 18.9775 5.0629 18.4265C5.10775 18.2338 5.03748 18.0921 4.88192 18.0513C4.7119 18.0068 4.58671 18.0908 4.53622 18.2954C4.43964 18.6868 4.35365 19.0802 4.25284 19.4702C4.16756 19.7988 4.12218 20.1383 4 20.457V20.6544C4.05333 20.7304 4.11819 20.7972 4.1921 20.852H4.35224C4.36248 20.8188 4.39338 20.8232 4.41686 20.8141C6.81468 19.8819 9.2128 18.9499 11.6112 18.0179C12.6566 17.6119 13.7036 17.2103 14.7489 16.8041C15.0385 16.6915 15.2432 16.4847 15.3382 16.1791C15.5164 15.6012 15.3674 15.0562 15.1539 14.5243C15.1013 14.3935 14.9743 14.3579 14.8414 14.3998Z" fill="#5C5B5B"/>
<path d="M20.2713 20.3908C20.3253 20.244 20.3585 20.09 20.3696 19.9335V19.5651C20.3156 18.9895 20.0615 18.5268 19.6152 18.1789C19.5134 18.1012 19.4253 18.0062 19.3547 17.898C19.0942 17.4962 18.768 17.1437 18.3906 16.856C17.8798 16.4643 17.3088 16.2157 16.6862 16.0866C16.491 16.0463 16.3358 16.1374 16.3029 16.308C16.272 16.4675 16.3841 16.5994 16.5784 16.6411C16.7079 16.6691 16.8373 16.7 16.964 16.7395C17.603 16.9402 18.1451 17.2965 18.6026 17.8203C18.3267 17.8869 18.084 17.9929 17.8766 18.1704C17.5081 18.4856 17.2968 18.8732 17.4045 19.3791C17.5139 19.8929 17.9266 20.2462 18.4034 20.2609C18.9473 20.2778 19.3709 19.969 19.5273 19.4334C19.5667 19.2987 19.5857 19.1577 19.6155 19.012C19.8715 19.3931 19.9014 19.9101 19.6987 20.3462C19.5807 20.6002 19.5928 20.6659 19.787 20.8521H19.9791C20.1543 20.7497 20.2074 20.5663 20.2713 20.3908ZM19.053 18.9041C19.053 19.3188 18.9164 19.5713 18.6503 19.6706C18.5473 19.7089 18.4355 19.7142 18.3295 19.6859C18.2236 19.6575 18.1285 19.5967 18.0568 19.5116C17.9124 19.341 17.8819 19.0837 17.9903 18.8859C18.1399 18.6137 18.3745 18.4544 18.6669 18.3874C18.8258 18.3511 18.9266 18.4152 18.9967 18.5729C19.0414 18.6771 19.0606 18.791 19.0527 18.9046L19.053 18.9041Z" fill="#969696"/>
<path d="M5.33622 4.28195C5.28784 4.40226 5.20892 4.51132 5.17219 4.63436C5.10457 4.86046 4.95909 4.9443 4.74121 4.95482C4.57771 4.96281 4.4158 5.00092 4.25249 5.01961C4.12677 5.03376 4.06497 5.12649 4 5.21922V5.3838C4.16738 5.61972 4.39196 5.79701 4.58724 6.00442C4.64021 6.05995 4.66299 6.10659 4.64692 6.18897C4.60296 6.41381 4.57841 6.64264 4.53534 6.86729C4.50973 7.00176 4.54116 7.1081 4.64604 7.18467C4.74774 7.25871 4.85791 7.24184 4.96385 7.18467C5.12275 7.0983 5.28802 7.02135 5.44057 6.92155C5.58182 6.82937 5.69993 6.81902 5.84471 6.9201C5.9895 7.02117 6.15458 7.08632 6.30766 7.17415C6.42419 7.24038 6.53719 7.26035 6.65142 7.17723C6.76566 7.09412 6.77166 6.97762 6.75171 6.85277C6.71728 6.63737 6.6825 6.42161 6.63853 6.20821C6.62088 6.12183 6.63977 6.06557 6.70104 6.0066C6.86595 5.84364 7.02803 5.67579 7.19223 5.51247C7.27751 5.427 7.29817 5.32247 7.26462 5.21087C7.22931 5.09655 7.14473 5.03703 7.02838 5.02069C6.80203 4.98912 6.57638 4.95174 6.34986 4.9227C6.27923 4.91363 6.23598 4.88823 6.20508 4.81854C6.12598 4.64034 6.03222 4.46868 5.95541 4.28938C5.90015 4.16018 5.82229 4.06056 5.69729 4.00122H5.60124C5.47111 4.05276 5.38954 4.14966 5.33622 4.28195ZM5.62843 4.90183C5.93247 5.48743 5.78539 5.39179 6.43496 5.50593C6.08184 5.73313 5.95224 6.02566 6.12545 6.43141C5.8011 6.18208 5.49601 6.14742 5.17201 6.43032C5.30144 6.03418 5.21633 5.73168 4.87186 5.49813C5.29914 5.52626 5.53538 5.31993 5.62843 4.90183Z" fill="#969696"/>
<path d="M10.2173 5.08402C10.4887 4.97133 10.6288 4.64851 10.528 4.3676C10.4608 4.1805 10.3133 4.08088 10.1484 4.00049H9.89224C9.85003 4.02118 9.80713 4.0406 9.76547 4.06237C9.64385 4.13031 9.55178 4.24308 9.50783 4.37798C9.46387 4.51289 9.47127 4.65989 9.52855 4.78941C9.58583 4.91892 9.68872 5.02132 9.81652 5.07599C9.94431 5.13066 10.0875 5.13352 10.2173 5.08402Z" fill="#969696"/>
<path d="M17.8952 4.70772C18.0105 4.51464 17.9231 4.12049 17.7385 4H17.5783C17.3936 4.12975 17.3125 4.48996 17.4221 4.69574C17.4454 4.73854 17.4792 4.77435 17.5201 4.79967C17.561 4.82498 17.6076 4.83892 17.6553 4.84013C17.7031 4.84134 17.7503 4.82977 17.7923 4.80655C17.8344 4.78334 17.8698 4.74928 17.8952 4.70772Z" fill="#969696"/>
<path d="M19.7179 9.36851C19.6748 9.39102 19.6385 9.42529 19.6131 9.46758C19.5877 9.50986 19.5741 9.55853 19.5739 9.60823C19.5706 9.71802 19.6224 9.80784 19.7202 9.86228C19.9187 9.97352 20.2739 9.88551 20.3967 9.69479V9.5302C20.2674 9.34148 19.9176 9.25873 19.7179 9.36851Z" fill="#969696"/>
<path d="M18.7173 9.47442C18.6364 9.33142 18.4908 9.30239 18.3 9.39548C16.6432 10.2064 14.9864 11.0171 13.3299 11.8277C13.1003 11.9402 12.8688 12.0496 12.6399 12.1637C12.5005 12.2332 12.4481 12.3539 12.4882 12.5045C12.5235 12.6351 12.618 12.699 12.7506 12.6994C12.8228 12.7005 12.8834 12.6671 12.946 12.6364C14.2768 11.9851 15.6077 11.3344 16.9386 10.6844C17.4797 10.4198 18.0211 10.1564 18.5608 9.88906C18.7494 9.79525 18.8066 9.63193 18.7173 9.47442Z" fill="#969696"/>
<path d="M9.44736 12.1228C9.60803 12.1854 9.74751 12.1067 9.8305 11.9038C9.90112 11.7335 9.96628 11.561 10.0394 11.3921C10.5401 10.237 10.842 9.03662 10.8295 7.8121C10.8295 7.70322 10.8295 7.64333 10.8295 7.5829C10.8252 7.01933 10.7595 6.45802 10.6339 5.90942C10.5985 5.75463 10.4811 5.66753 10.348 5.67987C10.2191 5.69184 10.1024 5.80381 10.0966 5.93592C10.0934 6.0056 10.1096 6.07728 10.1236 6.1466C10.3781 7.40682 10.3345 8.6561 9.99276 9.89442C9.82273 10.5152 9.55807 11.0974 9.32182 11.6909C9.24325 11.8874 9.29604 12.0631 9.44736 12.1228Z" fill="#969696"/>
<path d="M14.6045 13.2534C13.7735 13.2463 12.9624 13.4091 12.1488 13.5528C12.0161 13.5762 11.9386 13.6755 11.9361 13.8221C11.9336 13.9608 12.0034 14.0515 12.1253 14.0943C12.196 14.1193 12.2716 14.101 12.3461 14.0885C12.8816 13.9978 13.4144 13.8856 13.9565 13.8446C15.1545 13.7523 16.3579 13.9216 17.4877 14.3413C17.5531 14.3654 17.6175 14.3969 17.6875 14.3856C17.8219 14.3636 17.9144 14.2874 17.9293 14.1424C17.9456 13.985 17.8713 13.8894 17.726 13.8339C16.7198 13.4441 15.6765 13.2667 14.6045 13.2534Z" fill="#969696"/>
<path d="M14.4213 9.05552C14.8531 9.06011 15.2849 9.06011 15.7168 9.05552C15.9205 9.05316 16.0169 8.94881 16.0208 8.73795C16.0252 8.51892 16.0219 8.29971 16.0219 8.08049C16.0219 7.85039 16.0259 7.62012 16.0206 7.39001C16.016 7.18496 15.921 7.08896 15.7231 7.08769C15.2859 7.08503 14.8488 7.08503 14.4116 7.08769C14.205 7.08896 14.1093 7.18423 14.1072 7.39963C14.1026 7.84326 14.1023 8.28706 14.1063 8.73105C14.1084 8.95008 14.208 9.05316 14.4213 9.05552ZM14.681 7.67491C14.7624 7.59235 14.9333 7.66113 15.0645 7.64751C15.1957 7.66167 15.367 7.59181 15.4477 7.67546C15.5284 7.75912 15.4703 7.93423 15.4697 8.06888C15.4692 8.20353 15.5281 8.37955 15.4472 8.46284C15.3661 8.54614 15.1952 8.48698 15.0642 8.48662C14.9332 8.48626 14.7628 8.54722 14.6815 8.4623C14.6003 8.37737 14.6588 8.20298 14.6588 8.06797C14.6588 7.93296 14.5997 7.75767 14.681 7.67491Z" fill="#969696"/>
<path d="M10.5823 12.2504C10.6258 12.3613 10.7165 12.4138 10.814 12.4251C10.9362 12.4251 11.0082 12.3592 11.0789 12.2932C11.76 11.6641 12.441 11.0344 13.122 10.4041C13.324 10.2174 13.5281 10.0335 13.7273 9.84319C13.8589 9.71616 13.8685 9.55738 13.7626 9.4358C13.6522 9.30877 13.5101 9.30224 13.3669 9.42019C13.3337 9.44741 13.3019 9.47681 13.2703 9.5062C12.6025 10.125 11.934 10.7439 11.2646 11.363C11.063 11.5497 10.8612 11.7366 10.6593 11.9237C10.5622 12.0142 10.5338 12.1268 10.5823 12.2504Z" fill="#969696"/>
<path d="M18.2124 14.9468C18.2112 15.422 18.5656 15.7876 19.0296 15.7876C19.1374 15.7879 19.2443 15.7662 19.344 15.7238C19.4437 15.6814 19.5343 15.6192 19.6106 15.5408C19.6868 15.4623 19.7472 15.3691 19.7884 15.2666C19.8295 15.1641 19.8505 15.0542 19.8502 14.9433C19.8467 14.4886 19.4764 14.1086 19.0341 14.1048C18.9261 14.1037 18.8191 14.1247 18.719 14.1666C18.6191 14.2086 18.5281 14.2705 18.4517 14.3489C18.3752 14.4272 18.3146 14.5205 18.2736 14.6231C18.2325 14.7257 18.2117 14.8358 18.2124 14.9468ZM19.0227 14.6675C19.1661 14.6646 19.3017 14.8009 19.3022 14.9482C19.3022 15.099 19.175 15.2259 19.0246 15.2242C18.8669 15.2226 18.758 15.1059 18.7608 14.9419C18.7617 14.8702 18.7893 14.8018 18.8381 14.7506C18.8869 14.6995 18.953 14.6697 19.0227 14.6675Z" fill="#969696"/>
<path d="M12.4721 7.92733C12.9339 7.92733 13.2888 7.55968 13.2882 7.08333C13.2881 6.97304 13.2668 6.86385 13.2257 6.76199C13.1846 6.66013 13.1243 6.5676 13.0484 6.48967C12.9724 6.41174 12.8823 6.34995 12.7831 6.30783C12.684 6.26569 12.5777 6.24406 12.4704 6.24414C12.2537 6.24431 12.0459 6.33295 11.8928 6.49057C11.817 6.56861 11.7569 6.66124 11.7159 6.76316C11.6749 6.86509 11.6538 6.97431 11.6539 7.0846C11.6524 7.19553 11.6726 7.30563 11.7132 7.40843C11.7538 7.51122 11.814 7.60463 11.8902 7.68316C11.9664 7.76168 12.0572 7.82374 12.1571 7.86567C12.2571 7.90761 12.3641 7.92857 12.4721 7.92733ZM12.4668 6.80695C12.6123 6.80351 12.7424 6.93598 12.7429 7.08768C12.7405 7.16074 12.7104 7.22992 12.659 7.28044C12.6076 7.33096 12.539 7.35881 12.4679 7.35803C12.3968 7.35724 12.3288 7.32789 12.2785 7.27625C12.2281 7.22461 12.1994 7.15478 12.1986 7.0817C12.2027 6.93834 12.3277 6.81022 12.4668 6.80695Z" fill="#969696"/>
<path d="M18.1552 5.39524C18.2178 5.40704 18.2814 5.41184 18.345 5.40957C18.6148 5.41103 18.7511 5.31884 18.7573 5.13157C18.764 4.94085 18.6249 4.84431 18.3437 4.84666C18.2957 4.84666 18.2476 4.8434 18.1999 4.84666C18.0484 4.85846 17.9469 4.95555 17.9329 5.09927C17.9197 5.23682 18.0092 5.36112 18.1552 5.39524Z" fill="#969696"/>
<path d="M18.4779 8.23812C18.4731 8.32547 18.4736 8.41304 18.4792 8.50034C18.4932 8.66366 18.615 8.77761 18.7617 8.77254C18.9145 8.76764 19.016 8.65567 19.0234 8.48219C19.0252 8.43846 19.0234 8.39473 19.0234 8.35099C19.0234 8.3127 19.0234 8.27441 19.0234 8.2363C19.0184 8.05484 18.915 7.93398 18.7607 7.92926C18.603 7.926 18.4838 8.05302 18.4779 8.23812Z" fill="#969696"/>
<path d="M17.9324 5.69824C17.9263 5.52095 17.8304 5.41425 17.6741 5.40935C17.5108 5.40427 17.3964 5.51369 17.3876 5.6899C17.3825 5.78262 17.3825 5.87555 17.3876 5.96827C17.398 6.13467 17.5125 6.24392 17.6655 6.24156C17.8234 6.23919 17.9242 6.13267 17.9319 5.96028C17.9339 5.91673 17.9319 5.873 17.9319 5.82926C17.9319 5.78553 17.934 5.7418 17.9324 5.69824Z" fill="#969696"/>
<path d="M18.4841 10.6939C18.4735 10.7524 18.4781 10.8137 18.4779 10.8737C18.4779 11.1598 18.5731 11.3064 18.7579 11.3035C18.9378 11.3007 19.0252 11.1636 19.0247 10.8834C19.0247 10.834 19.0268 10.7849 19.0247 10.7357C19.0162 10.5798 18.9084 10.4635 18.7674 10.4551C18.6351 10.4484 18.5093 10.55 18.4841 10.6939Z" fill="#969696"/>
<path d="M19.6927 9.04216C19.7829 8.96667 19.865 8.8815 19.9376 8.78811C20.0045 8.70172 20.0038 8.59684 19.9552 8.49648C19.9051 8.39323 19.8184 8.35131 19.7042 8.34351C19.5253 8.36293 19.4394 8.52262 19.3265 8.63803C19.2234 8.74328 19.2308 8.90188 19.3226 9.00768C19.4194 9.11965 19.5753 9.14069 19.6927 9.04216Z" fill="#969696"/>
<path d="M16.7641 5.38956C16.832 5.41388 16.9001 5.40771 16.9688 5.40771C17.0217 5.40771 17.0756 5.41388 17.1277 5.40643C17.292 5.38339 17.3925 5.26653 17.3863 5.11065C17.3802 4.95477 17.2755 4.85387 17.1019 4.84679C17.0064 4.8416 16.9107 4.84256 16.8153 4.8497C16.6755 4.86186 16.5918 4.94733 16.5766 5.08924C16.5609 5.23622 16.6227 5.33912 16.7641 5.38956Z" fill="#969696"/>
<path d="M19.6738 10.1761C19.5826 10.1106 19.4851 10.1168 19.3901 10.1729C19.2981 10.2273 19.2591 10.3155 19.2578 10.4182C19.2561 10.5815 19.5543 10.8794 19.7155 10.8812C19.7634 10.8844 19.8111 10.8731 19.853 10.8489C19.8948 10.8247 19.9287 10.7885 19.9509 10.7447C20.0038 10.647 20.0061 10.5427 19.9434 10.4514C19.8697 10.3444 19.7784 10.2512 19.6738 10.1761Z" fill="#969696"/>
<path d="M17.5919 8.43964C17.4988 8.54435 17.4828 8.66883 17.5706 8.78207C17.6478 8.87911 17.7343 8.96809 17.8285 9.04774C17.9074 9.11615 18.0038 9.12032 18.0969 9.06915C18.1899 9.01797 18.2484 8.93559 18.2528 8.79259C18.227 8.6075 18.0688 8.49517 17.9214 8.38502C17.808 8.30046 17.6848 8.33548 17.5919 8.43964Z" fill="#969696"/>
</svg>
